usr/share/icons/biglinux-icons-material/16/actions/edit-copy.svg

<svg version="1.1" viewBox="0 0 16 16" xmlns="http://www.w3.org/2000/svg">
 <defs>
  <style id="current-color-scheme" type="text/css">.ColorScheme-Text {
        color:#dedede;
      }</style>
 </defs>
 <path d="m6 15c-1.108 0-2-0.892-2-2v-8c0-1.108 0.892-2 2-2h7c1.108 0 2 0.892 2 2v5l-5 5h-1zm0-1h3v-5h5v-4c0-0.554-0.446-1-1-1h-7c-0.554 0-1 0.446-1 1v8c0 0.554 0.446 1 1 1zm4-0.41406 3.5859-3.5859h-3.5859z" class="ColorScheme-Text" fill="currentColor"/>
 <path d="m3 1c-1.108 0-2 0.892-2 2v8c0 1.108 0.892 2 2 2h1v-1h-1c-0.554 0-1-0.446-1-1v-8c0-0.554 0.446-1 1-1h7c0.554 0 1 0.446 1 1h1c0-1.108-0.892-2-2-2h-7z" class="ColorScheme-Text" fill="currentColor"/>
</svg>

<svg xmlns="http://www.w3.org/2000/svg" viewBox="0 0 16 16"><defs><style id="current-color-scheme" type="text/css">.ColorScheme-Text{color:#dedede}</style></defs><path fill="currentColor" d="M6 15c-1.108 0-2-.892-2-2V5c0-1.108.892-2 2-2h7c1.108 0 2 .892 2 2v5l-5 5H9zm0-1h3V9h5V5c0-.554-.446-1-1-1H6c-.554 0-1 .446-1 1v8c0 .554.446 1 1 1zm4-.414L13.586 10H10z" class="ColorScheme-Text"/><path fill="currentColor" d="M3 1c-1.108 0-2 .892-2 2v8c0 1.108.892 2 2 2h1v-1H3c-.554 0-1-.446-1-1V3c0-.554.446-1 1-1h7c.554 0 1 .446 1 1h1c0-1.108-.892-2-2-2H3z" class="ColorScheme-Text"/></svg>
